X:139
M:4/4
L:1/8
K:G
| d2 | g2bg e2ag | f4 d4 | g2bg e2ag | f4 d2ef | 
gddd gddd | gdgd gddd | g2f2 edcB | ABAG F2E2 | 

